assets/media/icons/user.svg

<svg xmlns="http://www.w3.org/2000/svg" width="24" height="24" viewBox="0 0 24 24"><path d="M12 0c-6.627 0-12 5.373-12 12s5.373 12 12 12 12-5.373 12-12-5.373-12-12-12zm7.753 18.305c-.261-.586-.789-.991-1.871-1.241-2.293-.529-4.428-.993-3.393-2.945 3.145-5.942.833-9.119-2.489-9.119-3.388 0-5.644 3.299-2.489 9.119 1.066 1.964-1.148 2.427-3.393 2.945-1.084.25-1.608.658-1.867 1.246-1.405-1.723-2.251-3.919-2.251-6.31 0-5.514 4.486-10 10-10s10 4.486 10 10c0 2.389-.845 4.583-2.247 6.305z"/></svg>

<svg width="24" height="24" viewBox="0 0 24 24" fill="none" xmlns="http://www.w3.org/2000/svg">
<path d="M12 0C5.373 0 0 5.373 0 12C0 18.627 5.373 24 12 24C18.627 24 24 18.627 24 12C24 5.373 18.627 0 12 0ZM19.753 18.305C19.492 17.719 18.964 17.314 17.882 17.064C15.589 16.535 13.454 16.071 14.489 14.119C17.634 8.177 15.322 5 12 5C8.612 5 6.356 8.299 9.511 14.119C10.577 16.083 8.363 16.546 6.118 17.064C5.034 17.314 4.51 17.722 4.251 18.31C2.846 16.587 2 14.391 2 12C2 6.486 6.486 2 12 2C17.514 2 22 6.486 22 12C22 14.389 21.155 16.583 19.753 18.305Z" fill="#D24545"/>
</svg>
